Quickit/src/img/icons/lang.svg

<svg width="20" height="20" viewBox="0 0 20 20" fill="none" xmlns="http://www.w3.org/2000/svg">
<path fill-rule="evenodd" clip-rule="evenodd" d="M9.62061 0.00719839C9.7465 0.00250303 9.87297 0.000134521 10 0.000134521C10.127 0.000134521 10.2535 0.00250279 10.3794 0.00719767C10.4959 -0.0068875 10.6135 -0.000155156 10.7265 0.0261202C15.9102 0.398281 20 4.72159 20 10.0001C20 15.2787 15.9102 19.602 10.7265 19.9741C10.6135 20.0004 10.4959 20.0072 10.3794 19.9931C10.2535 19.9978 10.127 20.0001 10 20.0001C9.87297 20.0001 9.7465 19.9978 9.62062 19.9931C9.50403 20.0072 9.38648 20.0004 9.27348 19.9741C4.08979 19.602 0 15.2787 0 10.0001C0 4.72161 4.08979 0.398301 9.27348 0.0261227C9.38649 -0.000155156 9.50403 -0.0068881 9.62061 0.00719839ZM12.3753 17.6416C14.3116 17.0404 15.9329 15.7234 16.9297 14.0001H13.6277C13.3421 15.2535 12.9225 16.4745 12.3753 17.6416ZM11.5697 14.0001C11.2202 15.3537 10.6937 16.6603 9.99999 17.8851C9.30632 16.6603 8.77974 15.3537 8.43025 14.0001H11.5697ZM13.9663 12.0001H17.748C17.9125 11.3609 18 10.6907 18 10.0001C18 9.30954 17.9125 8.63937 17.748 8.00013H13.9663C14.0404 8.66215 14.0778 9.3298 14.0778 10.0001C14.0778 10.6705 14.0404 11.3381 13.9663 12.0001ZM11.9523 8.00013C12.0356 8.66128 12.0778 9.3292 12.0778 10.0001C12.0778 10.6711 12.0356 11.339 11.9523 12.0001H8.04766C7.96437 11.339 7.92218 10.6711 7.92218 10.0001C7.92218 9.3292 7.96437 8.66128 8.04766 8.00013H11.9523ZM13.6277 6.00013H16.9297C15.9329 4.27682 14.3116 2.95988 12.3753 2.35866C12.9225 3.52579 13.3421 4.74677 13.6277 6.00013ZM11.5697 6.00013H8.43025C8.77974 4.64656 9.30632 3.33993 9.99999 2.11517C10.6937 3.33993 11.2202 4.64656 11.5697 6.00013ZM7.62469 2.35867C5.68839 2.9599 4.06714 4.27683 3.07026 6.00013H6.37225C6.65792 4.74677 7.07745 3.52579 7.62469 2.35867ZM6.03363 8.00013H2.25203C2.08751 8.63937 2 9.30954 2 10.0001C2 10.6907 2.08751 11.3609 2.25204 12.0001H6.03363C5.95961 11.3381 5.92218 10.6705 5.92218 10.0001C5.92218 9.3298 5.95961 8.66215 6.03363 8.00013ZM6.37225 14.0001C6.65792 15.2535 7.07746 16.4745 7.62469 17.6416C5.68839 17.0404 4.06714 15.7234 3.07026 14.0001H6.37225Z" fill="#000"/>
</svg>

<svg xmlns="http://www.w3.org/2000/svg" width="20" height="20" fill="none" xmlns:v="https://vecta.io/nano"><path fill-rule="evenodd" d="M9.621.007L10 0l.379.007a1 1 0 0 1 .347.019C15.91.398 20 4.722 20 10s-4.09 9.602-9.273 9.974a1 1 0 0 1-.347.019A10.17 10.17 0 0 1 10 20a10.17 10.17 0 0 1-.379-.007 1 1 0 0 1-.347-.019C4.09 19.602 0 15.279 0 10S4.09.398 9.273.026a1 1 0 0 1 .347-.019zm2.755 17.634A8.02 8.02 0 0 0 16.93 14h-3.302c-.286 1.253-.705 2.474-1.252 3.642zM11.57 14A16 16 0 0 1 10 17.885 16 16 0 0 1 8.43 14h3.139zm2.397-2h3.782c.165-.639.252-1.309.252-2s-.087-1.361-.252-2h-3.782a17.98 17.98 0 0 1 0 4zm-2.014-4a16 16 0 0 1 0 4H8.048a16 16 0 0 1 0-4h3.905zm1.675-2h3.302a8.02 8.02 0 0 0-4.554-3.641A18 18 0 0 1 13.628 6zM11.57 6H8.43A16 16 0 0 1 10 2.115 16 16 0 0 1 11.57 6zM7.625 2.359A8.02 8.02 0 0 0 3.07 6h3.302a18 18 0 0 1 1.252-3.641zM6.034 8H2.252C2.088 8.639 2 9.31 2 10s.088 1.361.252 2h3.782c-.074-.662-.111-1.33-.111-2a18 18 0 0 1 .111-2zm.339 6a18 18 0 0 0 1.252 3.642A8.02 8.02 0 0 1 3.07 14h3.302z" fill="#000"/></svg>
